X: 31
T:Polka d'Ygrande
O:France
A:Massif Central
M:2/4
L:1/8
K:G
d2A2|A/2B/2A/2F/2 GD|DD AA|A/2B/2A/2F/2 G2:|
|:Ac BG|A/2B/2c/2A/2 BG|Ac BG|A/2B/2A/2F/2 G2:|
